packages/core/src/svgs/tokens/mono/YAM.svg

<svg width="24" height="24" viewBox="0 0 24 24" fill="none" xmlns="http://www.w3.org/2000/svg">
<path d="M2.57202 11.6119C2.22371 10.9565 2.04426 10.2246 2.04994 9.48243C5.62897 7.11238 12.952 2.3449 13.6045 2.25559C14.0594 2.17811 14.5271 2.25043 14.9373 2.46168C20.5154 8.86413 21.6831 14.2155 21.9649 17.6915C22.0954 18.6052 21.9304 20.6248 20.2612 21.4423C18.1728 22.4728 16.3868 21.195 14.9373 20.8515C13.4947 20.5013 10.5407 19.3746 9.17367 18.4952C7.8135 17.6091 7.27081 16.9359 6.52889 16.242C5.78011 15.5414 3.13532 12.5943 2.57202 11.6119Z" fill="white"/>
<path d="M17.2044 6.1435C17.4723 5.77254 17.9188 6.34958 18.1112 6.67932C19.7667 8.80202 21.2712 13.4596 21.2093 13.4596C20.7491 11.9758 16.8814 6.60376 17.2044 6.1435Z" fill="white"/>
<path d="M8.78192 7.14322C12.1521 5.09117 14.5952 2.93389 14.2387 2.3248C13.8824 1.71573 10.8616 2.88548 7.49139 4.93753C4.12128 6.98958 1.67815 9.14691 2.03452 9.75601C2.39088 10.365 5.4118 9.19532 8.78192 7.14322Z" fill="white"/>
<path d="M2.1873 10.5884C2.02242 10.4373 2.12547 10.2038 2.20103 10.1076C2.72313 10.3549 4.52296 9.88766 5.36104 9.62671C4.37183 10.0045 2.35217 10.7396 2.1873 10.5884Z" fill="white"/>
</svg>

<svg xmlns="http://www.w3.org/2000/svg" width="24" height="24" fill="none" viewBox="0 0 24 24">
    <path fill="#fff" d="M2.572 11.612a4.5 4.5 0 0 1-.522-2.13c3.579-2.37 10.902-7.137 11.555-7.226a2.13 2.13 0 0 1 1.332.206c5.578 6.402 6.746 11.754 7.028 15.23.13.913-.035 2.933-1.704 3.75-2.088 1.03-3.874-.247-5.324-.59-1.442-.35-4.396-1.477-5.763-2.357-1.36-.886-1.903-1.56-2.645-2.253-.749-.7-3.394-3.648-3.957-4.63"/>
    <path fill="#fff" d="M17.204 6.144c.268-.371.715.206.907.535 1.656 2.123 3.16 6.78 3.098 6.78-.46-1.483-4.328-6.855-4.005-7.315m-8.422.999c3.37-2.052 5.813-4.21 5.457-4.818-.357-.61-3.377.56-6.748 2.613-3.37 2.052-5.813 4.209-5.456 4.818s3.377-.56 6.747-2.613m-6.595 3.445c-.165-.15-.062-.384.014-.48.522.247 2.322-.22 3.16-.481-.99.377-3.009 1.113-3.174.961"/>
</svg>
